packages/calcite-ui-icons/icons/group-template-16.svg

<?xml version="1.0" encoding="UTF-8"?><svg id="icons" xmlns="http://www.w3.org/2000/svg" viewBox="0 0 16 16"><defs><style>.cls-1{fill:none;}</style></defs><rect class="cls-1" width="16" height="16"/><path d="M8,4h-2v-1h2v1ZM2,11h2v-2h-2v2ZM4,6h-2v2h2v-2ZM8,6h-3v1h3v-1ZM5,10h3v-1h-3v1ZM9,1.90906v10.09094h1V1.79486c0-.98865-.74707-1.79486-1.66669-1.79486h-2.33331v1h2.16669c.46021,0,.83331.40698.83331.90906ZM1,12.09088v-6.09088H0v6.20514c0,.9903.74707,1.79486,1.66669,1.79486h5.33331v-1H1.83331c-.46021,0-.83331-.40704-.83331-.90912ZM1.09216,3H0v-1h1.09216c.0174-.04877.03601-.09625.05817-.14258l-.77167-.77167.70715-.70709.77167.77167c.04633-.02216.09375-.04077.14252-.05817V0h1v1.09216c.04877.0174.09619.03601.14252.05817l.77167-.77167.70715.70709-.77167.77167c.02216.04633.04077.09381.05817.14258h1.09216v1l-1.0922-.001c-.0174.04877-.03597.09719-.05813.14352l.77167.77167-.70715.70709-.77161-.77161c-.04633.02216-.09381.04077-.14258.05817v1.09216h-1v-1.09216c-.04877-.0174-.09625-.03601-.14258-.05817l-.77161.77161-.70715-.70709.77167-.77167c-.02216-.04633-.04077-.09375-.05817-.14252ZM2,3h1v-1h-1v1ZM13,13v3h3v-3h-3ZM15,15h-1v-1h1v1ZM16,11v-3h-3v2.29297l-2.70703,2.70703h-2.29297v3h3v-2.29297l2.70703-2.70703h2.29297ZM14,9h1v1h-1v-1ZM10,15h-1v-1h1v1Z"/></svg>

<svg xmlns="http://www.w3.org/2000/svg" viewBox="0 0 16 16"><path d="M0 0h16v16H0z" style="fill:none"/><path d="M8 4H6V3h2zm-6 7h2V9H2zm2-5H2v2h2zm4 0H5v1h3zm-3 4h3V9H5zm4-8.09V12h1V1.795C10 .806 9.253 0 8.333 0H6v1h2.167c.46 0 .833.407.833.91M1 12.09V6H0v6.205C0 13.195.747 14 1.667 14H7v-1H1.833c-.46 0-.833-.407-.833-.91M1.092 3H0V2h1.092q.026-.073.058-.143l-.77-.771.707-.707.771.771q.07-.032.143-.058V0h1v1.092q.073.026.143.058l.77-.77.707.707-.771.771q.032.07.058.143H5v1L3.908 3a2 2 0 0 1-.058.144l.771.771-.707.707-.771-.771q-.07.032-.143.058V5H2V3.908a2 2 0 0 1-.143-.058l-.771.771-.707-.707.771-.771A2 2 0 0 1 1.092 3M2 3h1V2H2zm11 10v3h3v-3zm2 2h-1v-1h1zm1-4V8h-3v2.293L10.293 13H8v3h3v-2.293L13.707 11zm-2-2h1v1h-1zm-4 6H9v-1h1z"/></svg>
